logos/learner-lab.svg

<?xml version="1.0" encoding="UTF-8"?>
<!DOCTYPE svg PUBLIC "-//W3C//DTD SVG 1.1//EN" "http://www.w3.org/Graphics/SVG/1.1/DTD/svg11.dtd">
<svg xmlns="http://www.w3.org/2000/svg" version="1.1" width="200px" height="200px" style="shape-rendering:geometricPrecision; text-rendering:geometricPrecision; image-rendering:optimizeQuality; fill-rule:evenodd; clip-rule:evenodd" xmlns:xlink="http://www.w3.org/1999/xlink">
<g><path style="opacity:1" fill="#010101" d="M -0.5,-0.5 C 66.1667,-0.5 132.833,-0.5 199.5,-0.5C 199.5,66.1667 199.5,132.833 199.5,199.5C 132.833,199.5 66.1667,199.5 -0.5,199.5C -0.5,132.833 -0.5,66.1667 -0.5,-0.5 Z"/></g>
<g><path style="opacity:1" fill="#bdb8c0" d="M 44.5,49.5 C 40.8485,48.8345 37.0152,48.5012 33,48.5C 28.771,48.5102 24.9377,49.1768 21.5,50.5C 20.596,49.791 20.2627,48.791 20.5,47.5C 28.8599,47.1688 37.1932,47.5021 45.5,48.5C 45.3764,49.1067 45.0431,49.44 44.5,49.5 Z"/></g>
<g><path style="opacity:1" fill="#f1f1f0" d="M 44.5,49.5 C 41.9547,56.2609 39.1213,62.9276 36,69.5C 35.5002,78.4938 35.3336,87.4938 35.5,96.5C 40.1785,96.6658 44.8452,96.4992 49.5,96C 45.3953,86.7068 48.2286,80.5401 58,77.5C 65.3535,79.1814 68.5201,83.8481 67.5,91.5C 62.7863,91.1734 58.1196,91.5067 53.5,92.5C 54.3128,93.8139 55.3128,94.9805 56.5,96C 59.5314,96.4954 62.5314,96.3287 65.5,95.5C 67.2789,97.3435 69.6122,98.0102 72.5,97.5C 72.5,91.1667 72.5,84.8333 72.5,78.5C 73.8333,78.5 75.1667,78.5 76.5,78.5C 76.3505,79.552 76.5172,80.552 77,81.5C 78.9416,79.0452 81.4416,77.7118 84.5,77.5C 84.5,79.5 84.5,81.5 84.5,83.5C 81.6748,83.1616 79.5082,84.1616 78,86.5C 77.5017,89.8168 77.335,93.1501 77.5,96.5C 80.8333,96.5 84.1667,96.5 87.5,96.5C 87.5,90.5 87.5,84.5 87.5,78.5C 89.1667,78.5 90.8333,78.5 92.5,78.5C 92.3505,79.552 92.5172,80.552 93,81.5C 97.0626,76.8013 101.396,76.468 106,80.5C 107.397,85.7081 107.897,91.0414 107.5,96.5C 109.693,97.7969 112.027,97.7969 114.5,96.5C 114.376,95.8933 114.043,95.56 113.5,95.5C 109.921,83.5895 114.255,78.0895 126.5,79C 129.493,80.1585 131.16,82.3252 131.5,85.5C 131.5,87.1667 131.5,88.8333 131.5,90.5C 126.833,90.5 122.167,90.5 117.5,90.5C 117.263,91.791 117.596,92.791 118.5,93.5C 121.412,96.5716 124.912,97.2382 129,95.5C 131.256,97.0855 133.756,97.7521 136.5,97.5C 136.5,91.1667 136.5,84.8333 136.5,78.5C 138.167,78.5 139.833,78.5 141.5,78.5C 141.443,82.1331 142.443,82.2998 144.5,79C 145.793,78.51 147.127,78.3433 148.5,78.5C 148.5,80.1667 148.5,81.8333 148.5,83.5C 146.278,83.178 144.444,83.8446 143,85.5C 142.333,96.1667 142.333,106.833 143,117.5C 143.977,118.774 144.811,118.774 145.5,117.5C 147.833,117.5 150.167,117.5 152.5,117.5C 152.842,118.338 153.508,118.672 154.5,118.5C 154.762,119.978 154.429,121.311 153.5,122.5C 148.488,120.876 143.822,121.543 139.5,124.5C 138.712,123.23 137.712,122.23 136.5,121.5C 135.167,115.167 135.167,108.833 136.5,102.5C 101.337,101.502 66.0039,101.168 30.5,101.5C 30.8278,90.6536 30.4944,79.9869 29.5,69.5C 26.0618,63.5266 23.3952,57.1933 21.5,50.5C 24.9377,49.1768 28.771,48.5102 33,48.5C 37.0152,48.5012 40.8485,48.8345 44.5,49.5 Z"/></g>
<g><path style="opacity:1" fill="#9dc06d" d="M 28.5,52.5 C 31.1667,52.5 33.8333,52.5 36.5,52.5C 33.8571,65.8078 31.1905,65.8078 28.5,52.5 Z"/></g>
<g><path style="opacity:1" fill="#0e0e0e" d="M 54.5,82.5 C 57.9079,81.828 60.5745,82.828 62.5,85.5C 59.5719,86.4841 56.5719,86.8174 53.5,86.5C 53.4326,85.0413 53.7659,83.7079 54.5,82.5 Z"/></g>
<g><path style="opacity:1" fill="#0c0c0c" d="M 101.5,86.5 C 101.5,89.8333 101.5,93.1667 101.5,96.5C 98.8333,96.5 96.1667,96.5 93.5,96.5C 93.1326,92.0329 93.6326,87.6996 95,83.5C 98.7579,81.5265 100.925,82.5265 101.5,86.5 Z"/></g>
<g><path style="opacity:1" fill="#131313" d="M 119.5,82.5 C 121.527,82.3379 123.527,82.5045 125.5,83C 126.337,84.0113 126.67,85.1779 126.5,86.5C 123.482,86.6646 120.482,86.498 117.5,86C 118.305,84.8873 118.972,83.7206 119.5,82.5 Z"/></g>
<g><path style="opacity:1" fill="#6a6a6a" d="M 72.5,78.5 C 72.5,84.8333 72.5,91.1667 72.5,97.5C 69.6122,98.0102 67.2789,97.3435 65.5,95.5C 67.3792,96.3414 69.3792,96.6747 71.5,96.5C 71.1771,90.31 71.5104,84.31 72.5,78.5 Z"/></g>
<g><path style="opacity:1" fill="#848484" d="M 131.5,85.5 C 132.461,87.2646 132.795,89.2646 132.5,91.5C 127.381,90.8969 122.715,91.5636 118.5,93.5C 117.596,92.791 117.263,91.791 117.5,90.5C 122.167,90.5 126.833,90.5 131.5,90.5C 131.5,88.8333 131.5,87.1667 131.5,85.5 Z"/></g>
<g><path style="opacity:1" fill="#808080" d="M 101.5,86.5 C 102.482,89.9619 102.815,93.6286 102.5,97.5C 99.2869,97.81 96.2869,97.4767 93.5,96.5C 96.1667,96.5 98.8333,96.5 101.5,96.5C 101.5,93.1667 101.5,89.8333 101.5,86.5 Z"/></g>
<g><path style="opacity:1" fill="#888888" d="M 113.5,95.5 C 114.043,95.56 114.376,95.8933 114.5,96.5C 112.027,97.7969 109.693,97.7969 107.5,96.5C 109.735,96.7947 111.735,96.4614 113.5,95.5 Z"/></g>
<g><path style="opacity:1" fill="#818181" d="M 29.5,69.5 C 30.4944,79.9869 30.8278,90.6536 30.5,101.5C 66.0039,101.168 101.337,101.502 136.5,102.5C 100.833,102.5 65.1667,102.5 29.5,102.5C 29.5,91.5 29.5,80.5 29.5,69.5 Z"/></g>
<g><path style="opacity:1" fill="#8baf4d" d="M 152.5,117.5 C 150.167,117.5 147.833,117.5 145.5,117.5C 148.333,104.304 150.666,104.304 152.5,117.5 Z"/></g>
<g><path style="opacity:1" fill="#f6f6f6" d="M 98.5,137.5 C 101.962,138.482 105.629,138.815 109.5,138.5C 109.5,139.5 109.5,140.5 109.5,141.5C 104.167,141.5 98.8333,141.5 93.5,141.5C 93.5,132.5 93.5,123.5 93.5,114.5C 95.1667,114.5 96.8333,114.5 98.5,114.5C 98.5,122.167 98.5,129.833 98.5,137.5 Z"/></g>
<g><path style="opacity:1" fill="#879d67" d="M 132.5,121.5 C 130.833,121.5 129.167,121.5 127.5,121.5C 124.139,120.704 123.972,120.037 127,119.5C 129.111,119.701 130.945,120.367 132.5,121.5 Z"/></g>
<g><path style="opacity:1" fill="#8bbe40" d="M 127.5,121.5 C 129.167,121.5 130.833,121.5 132.5,121.5C 133.167,121.5 133.833,121.5 134.5,121.5C 134.843,123.483 134.176,124.817 132.5,125.5C 130.251,124.92 128.585,123.587 127.5,121.5 Z"/></g>
<g><path style="opacity:1" fill="#e9f8e5" d="M 154.5,118.5 C 157.579,120.467 160.412,122.8 163,125.5C 163.079,130.926 163.246,136.26 163.5,141.5C 162.5,141.5 161.5,141.5 160.5,141.5C 157.882,143.033 155.216,144.366 152.5,145.5C 150.167,145.5 147.833,145.5 145.5,145.5C 144.833,145.5 144.167,145.5 143.5,145.5C 142.448,143.744 140.781,143.077 138.5,143.5C 138.5,142.833 138.5,142.167 138.5,141.5C 137.199,140.118 136.366,138.452 136,136.5C 135.412,131.472 135.578,126.472 136.5,121.5C 137.712,122.23 138.712,123.23 139.5,124.5C 143.822,121.543 148.488,120.876 153.5,122.5C 154.429,121.311 154.762,119.978 154.5,118.5 Z"/></g>
<g><path style="opacity:1" fill="#8baf51" d="M 168.5,143.5 C 166.833,142.833 165.167,142.167 163.5,141.5C 163.246,136.26 163.079,130.926 163,125.5C 160.412,122.8 157.579,120.467 154.5,118.5C 163.11,107.723 165.11,108.39 160.5,120.5C 161.5,120.833 162.5,121.167 163.5,121.5C 166.71,120.056 170.043,119.556 173.5,120C 170.403,122.219 167.737,124.886 165.5,128C 169.417,129.473 173.417,130.639 177.5,131.5C 173.307,132.264 169.307,133.597 165.5,135.5C 168.625,138.123 171.625,140.956 174.5,144C 172.512,144.18 170.512,144.014 168.5,143.5 Z"/></g>
<g><path style="opacity:1" fill="#ededeb" d="M 128.5,129.5 C 127.314,130.961 127.314,132.295 128.5,133.5C 128.5,135.5 128.5,137.5 128.5,139.5C 127.533,140.806 126.199,141.473 124.5,141.5C 124.565,141.062 124.399,140.728 124,140.5C 115,145.167 111.333,142.5 113,132.5C 115.984,129.9 119.484,128.9 123.5,129.5C 123.64,127.876 122.973,126.71 121.5,126C 118.808,125.57 116.141,125.737 113.5,126.5C 113.36,124.876 114.027,123.71 115.5,123C 119.572,122.044 123.405,122.544 127,124.5C 128.009,126.025 128.509,127.692 128.5,129.5 Z"/></g>
<g><path style="opacity:1" fill="#161617" d="M 118.5,132.5 C 120.167,132.5 121.833,132.5 123.5,132.5C 124.5,137.5 122.5,139.5 117.5,138.5C 117.325,136.379 117.659,134.379 118.5,132.5 Z"/></g>
<g><path style="opacity:1" fill="#52b05e" d="M 143.5,124.5 C 142.758,126.594 142.091,128.761 141.5,131C 142.059,135.277 142.726,135.444 143.5,131.5C 145.833,130.167 148.167,128.833 150.5,127.5C 150.324,131.033 148.991,134.033 146.5,136.5C 152.285,139.039 155.618,137.205 156.5,131C 154.685,125.373 150.685,123.207 144.5,124.5C 151.865,121.079 156.532,123.413 158.5,131.5C 156.503,138.655 151.836,141.488 144.5,140C 140.741,136.257 139.574,131.757 141,126.5C 141.708,125.619 142.542,124.953 143.5,124.5 Z"/></g>
<g><path style="opacity:1" fill="#39b74a" d="M 143.5,124.5 C 143.833,124.5 144.167,124.5 144.5,124.5C 150.685,123.207 154.685,125.373 156.5,131C 155.618,137.205 152.285,139.039 146.5,136.5C 148.991,134.033 150.324,131.033 150.5,127.5C 148.167,128.833 145.833,130.167 143.5,131.5C 142.726,135.444 142.059,135.277 141.5,131C 142.091,128.761 142.758,126.594 143.5,124.5 Z"/></g>
<g><path style="opacity:1" fill="#1f2718" d="M 128.5,133.5 C 134.791,135.006 134.791,137.006 128.5,139.5C 128.5,137.5 128.5,135.5 128.5,133.5 Z"/></g>
<g><path style="opacity:1" fill="#97b956" d="M 134.5,121.5 C 135.167,121.5 135.833,121.5 136.5,121.5C 135.578,126.472 135.412,131.472 136,136.5C 136.366,138.452 137.199,140.118 138.5,141.5C 135.518,141.963 132.518,142.296 129.5,142.5C 129.443,141.391 129.11,140.391 128.5,139.5C 134.791,137.006 134.791,135.006 128.5,133.5C 127.314,132.295 127.314,130.961 128.5,129.5C 131.893,129.536 133.227,128.203 132.5,125.5C 134.176,124.817 134.843,123.483 134.5,121.5 Z"/></g>
<g><path style="opacity:1" fill="#8f8f8f" d="M 98.5,137.5 C 102.5,137.5 106.5,137.5 110.5,137.5C 110.5,139.167 110.5,140.833 110.5,142.5C 104.642,142.822 98.9753,142.489 93.5,141.5C 98.8333,141.5 104.167,141.5 109.5,141.5C 109.5,140.5 109.5,139.5 109.5,138.5C 105.629,138.815 101.962,138.482 98.5,137.5 Z"/></g>
<g><path style="opacity:1" fill="#adbd96" d="M 128.5,139.5 C 129.11,140.391 129.443,141.391 129.5,142.5C 129.5,142.833 129.5,143.167 129.5,143.5C 127.883,144.038 126.216,144.371 124.5,144.5C 124.5,143.5 124.5,142.5 124.5,141.5C 126.199,141.473 127.533,140.806 128.5,139.5 Z"/></g>
<g><path style="opacity:1" fill="#081004" d="M 138.5,141.5 C 138.5,142.167 138.5,142.833 138.5,143.5C 135.974,145.929 135.141,148.929 136,152.5C 138.998,150.667 141.498,148.334 143.5,145.5C 144.167,145.5 144.833,145.5 145.5,145.5C 148.359,159.994 150.692,159.994 152.5,145.5C 156.546,147.292 160.046,149.959 163,153.5C 163.005,149.357 162.171,145.357 160.5,141.5C 161.5,141.5 162.5,141.5 163.5,141.5C 165.167,142.167 166.833,142.833 168.5,143.5C 167.167,143.5 165.833,143.5 164.5,143.5C 165.444,147.741 165.778,151.907 165.5,156C 164.448,157.119 163.281,157.619 162,157.5C 159.644,155.31 157.144,153.31 154.5,151.5C 153.795,154.089 153.795,156.756 154.5,159.5C 151.426,159.127 148.426,158.461 145.5,157.5C 145.758,149.868 143.592,148.868 139,154.5C 137.542,153.253 136.042,153.253 134.5,154.5C 134.091,150.93 134.091,147.264 134.5,143.5C 132.833,143.5 131.167,143.5 129.5,143.5C 129.5,143.167 129.5,142.833 129.5,142.5C 132.518,142.296 135.518,141.963 138.5,141.5 Z"/></g>
<g><path style="opacity:1" fill="#87aa58" d="M 138.5,143.5 C 140.781,143.077 142.448,143.744 143.5,145.5C 141.498,148.334 138.998,150.667 136,152.5C 135.141,148.929 135.974,145.929 138.5,143.5 Z"/></g>
<g><path style="opacity:1" fill="#8bb154" d="M 145.5,145.5 C 147.833,145.5 150.167,145.5 152.5,145.5C 150.692,159.994 148.359,159.994 145.5,145.5 Z"/></g>
<g><path style="opacity:1" fill="#8eb15d" d="M 160.5,141.5 C 162.171,145.357 163.005,149.357 163,153.5C 160.046,149.959 156.546,147.292 152.5,145.5C 155.216,144.366 157.882,143.033 160.5,141.5 Z"/></g>
</svg>

<svg xmlns="http://www.w3.org/2000/svg" width="200" height="200" style="shape-rendering:geometricPrecision;text-rendering:geometricPrecision;image-rendering:optimizeQuality;fill-rule:evenodd;clip-rule:evenodd"><path style="opacity:1" fill="#010101" d="M-.5-.5h200v200H-.5V-.5z"/><path style="opacity:1" fill="#bdb8c0" d="M44.5 49.5c-3.651-.666-7.485-.999-11.5-1-4.229.01-8.062.677-11.5 2-.904-.709-1.237-1.709-1-3 8.36-.331 16.693.002 25 1-.124.607-.457.94-1 1z"/><path style="opacity:1" fill="#f1f1f0" d="M44.5 49.5a260.805 260.805 0 0 1-8.5 20c-.5 8.994-.666 17.994-.5 27 4.678.166 9.345 0 14-.5-4.105-9.293-1.271-15.46 8.5-18.5 7.353 1.681 10.52 6.348 9.5 14a49.873 49.873 0 0 0-14 1 14.974 14.974 0 0 0 3 3.5 20.68 20.68 0 0 0 9-.5c1.779 1.844 4.112 2.51 7 2v-19h4a4.932 4.932 0 0 0 .5 3c1.942-2.455 4.442-3.788 7.5-4v6c-2.825-.338-4.992.662-6.5 3a50.441 50.441 0 0 0-.5 10h10v-18h5a4.932 4.932 0 0 0 .5 3c4.063-4.699 8.396-5.032 13-1 1.397 5.208 1.897 10.541 1.5 16 2.193 1.297 4.527 1.297 7 0-.124-.607-.457-.94-1-1-3.579-11.91.755-17.41 13-16.5 2.993 1.159 4.66 3.325 5 6.5v5h-14c-.237 1.291.096 2.291 1 3 2.912 3.072 6.412 3.738 10.5 2 2.256 1.585 4.756 2.252 7.5 2v-19h5c-.057 3.633.943 3.8 3 .5a8.435 8.435 0 0 1 4-.5v5c-2.222-.322-4.056.345-5.5 2a256.122 256.122 0 0 0 0 32c.977 1.274 1.811 1.274 2.5 0h7c.342.838 1.008 1.172 2 1 .262 1.478-.071 2.811-1 4-5.012-1.624-9.678-.957-14 2-.788-1.27-1.788-2.27-3-3a45.636 45.636 0 0 1 0-19 2809.857 2809.857 0 0 0-106-1c.328-10.846-.006-21.513-1-32a83.581 83.581 0 0 1-8-19c3.438-1.323 7.271-1.99 11.5-2 4.015.001 7.849.334 11.5 1z"/><path style="opacity:1" fill="#9dc06d" d="M28.5 52.5h8c-2.643 13.308-5.31 13.308-8 0z"/><path style="opacity:1" fill="#0e0e0e" d="M54.5 82.5c3.408-.672 6.075.328 8 3a21.12 21.12 0 0 1-9 1c-.067-1.459.266-2.792 1-4z"/><path style="opacity:1" fill="#0c0c0c" d="M101.5 86.5v10h-8c-.367-4.467.133-8.8 1.5-13 3.758-1.974 5.925-.974 6.5 3z"/><path style="opacity:1" fill="#131313" d="M119.5 82.5a18.437 18.437 0 0 1 6 .5c.837 1.011 1.17 2.178 1 3.5a40.939 40.939 0 0 1-9-.5 18.476 18.476 0 0 0 2-3.5z"/><path style="opacity:1" fill="#6a6a6a" d="M72.5 78.5v19c-2.888.51-5.221-.156-7-2 1.88.841 3.88 1.175 6 1-.323-6.19.01-12.19 1-18z"/><path style="opacity:1" fill="#848484" d="M131.5 85.5c.961 1.765 1.295 3.765 1 6-5.119-.603-9.785.064-14 2-.904-.709-1.237-1.709-1-3h14v-5z"/><path style="opacity:1" fill="gray" d="M101.5 86.5c.982 3.462 1.315 7.129 1 11-3.213.31-6.213-.023-9-1h8v-10z"/><path style="opacity:1" fill="#888" d="M113.5 95.5c.543.06.876.393 1 1-2.473 1.297-4.807 1.297-7 0 2.235.295 4.235-.039 6-1z"/><path style="opacity:1" fill="#818181" d="M29.5 69.5c.994 10.487 1.328 21.154 1 32 35.504-.332 70.837.002 106 1h-107v-33z"/><path style="opacity:1" fill="#8baf4d" d="M152.5 117.5h-7c2.833-13.196 5.166-13.196 7 0z"/><path style="opacity:1" fill="#f6f6f6" d="M98.5 137.5c3.462.982 7.129 1.315 11 1v3h-16v-27h5v23z"/><path style="opacity:1" fill="#879d67" d="M132.5 121.5h-5c-3.361-.796-3.528-1.463-.5-2 2.111.201 3.945.867 5.5 2z"/><path style="opacity:1" fill="#8bbe40" d="M127.5 121.5h7c.343 1.983-.324 3.317-2 4-2.249-.58-3.915-1.913-5-4z"/><path style="opacity:1" fill="#e9f8e5" d="M154.5 118.5a46.198 46.198 0 0 1 8.5 7c.079 5.426.246 10.76.5 16h-3a66.62 66.62 0 0 1-8 4h-9c-1.052-1.756-2.719-2.423-5-2v-2c-1.301-1.382-2.134-3.048-2.5-5a49.974 49.974 0 0 1 .5-15c1.212.73 2.212 1.73 3 3 4.322-2.957 8.988-3.624 14-2 .929-1.189 1.262-2.522 1-4z"/><path style="opacity:1" fill="#8baf51" d="m168.5 143.5-5-2a472.635 472.635 0 0 1-.5-16 46.198 46.198 0 0 0-8.5-7c8.61-10.777 10.61-10.11 6 2l3 1c3.21-1.444 6.543-1.944 10-1.5a34.614 34.614 0 0 0-8 8 82.27 82.27 0 0 0 12 3.5 44.573 44.573 0 0 0-12 4 107.015 107.015 0 0 1 9 8.5 17.65 17.65 0 0 1-6-.5z"/><path style="opacity:1" fill="#ededeb" d="M128.5 129.5c-1.186 1.461-1.186 2.795 0 4v6c-.967 1.306-2.301 1.973-4 2 .065-.438-.101-.772-.5-1-9 4.667-12.667 2-11-8 2.984-2.6 6.484-3.6 10.5-3 .14-1.624-.527-2.79-2-3.5a18.163 18.163 0 0 0-8 .5c-.14-1.624.527-2.79 2-3.5 4.072-.956 7.905-.456 11.5 1.5 1.009 1.525 1.509 3.192 1.5 5z"/><path style="opacity:1" fill="#161617" d="M118.5 132.5h5c1 5-1 7-6 6-.175-2.121.159-4.121 1-6z"/><path style="opacity:1" fill="#52b05e" d="M143.5 124.5a82.484 82.484 0 0 0-2 6.5c.559 4.277 1.226 4.444 2 .5l7-4c-.176 3.533-1.509 6.533-4 9 5.785 2.539 9.118.705 10-5.5-1.815-5.627-5.815-7.793-12-6.5 7.365-3.421 12.032-1.087 14 7-1.997 7.155-6.664 9.988-14 8.5-3.759-3.743-4.926-8.243-3.5-13.5.708-.881 1.542-1.547 2.5-2z"/><path style="opacity:1" fill="#39b74a" d="M143.5 124.5h1c6.185-1.293 10.185.873 12 6.5-.882 6.205-4.215 8.039-10 5.5 2.491-2.467 3.824-5.467 4-9l-7 4c-.774 3.944-1.441 3.777-2-.5a82.484 82.484 0 0 1 2-6.5z"/><path style="opacity:1" fill="#1f2718" d="M128.5 133.5c6.291 1.506 6.291 3.506 0 6v-6z"/><path style="opacity:1" fill="#97b956" d="M134.5 121.5h2a49.974 49.974 0 0 0-.5 15c.366 1.952 1.199 3.618 2.5 5-2.982.463-5.982.796-9 1a5.727 5.727 0 0 0-1-3c6.291-2.494 6.291-4.494 0-6-1.186-1.205-1.186-2.539 0-4 3.393.036 4.727-1.297 4-4 1.676-.683 2.343-2.017 2-4z"/><path style="opacity:1" fill="#8f8f8f" d="M98.5 137.5h12v5c-5.858.322-11.525-.011-17-1h16v-3c-3.871.315-7.538-.018-11-1z"/><path style="opacity:1" fill="#adbd96" d="M128.5 139.5c.61.891.943 1.891 1 3v1a20.69 20.69 0 0 1-5 1v-3c1.699-.027 3.033-.694 4-2z"/><path style="opacity:1" fill="#081004" d="M138.5 141.5v2c-2.526 2.429-3.359 5.429-2.5 9a25.122 25.122 0 0 0 7.5-7h2c2.859 14.494 5.192 14.494 7 0 4.046 1.792 7.546 4.459 10.5 8 .005-4.143-.829-8.143-2.5-12h3l5 2h-4c.944 4.241 1.278 8.407 1 12.5-1.052 1.119-2.219 1.619-3.5 1.5a64.603 64.603 0 0 0-7.5-6c-.705 2.589-.705 5.256 0 8a46.86 46.86 0 0 1-9-2c.258-7.632-1.908-8.632-6.5-3-1.458-1.247-2.958-1.247-4.5 0-.409-3.57-.409-7.236 0-11h-5v-1c3.018-.204 6.018-.537 9-1z"/><path style="opacity:1" fill="#87aa58" d="M138.5 143.5c2.281-.423 3.948.244 5 2a25.122 25.122 0 0 1-7.5 7c-.859-3.571-.026-6.571 2.5-9z"/><path style="opacity:1" fill="#8bb154" d="M145.5 145.5h7c-1.808 14.494-4.141 14.494-7 0z"/><path style="opacity:1" fill="#8eb15d" d="M160.5 141.5c1.671 3.857 2.505 7.857 2.5 12-2.954-3.541-6.454-6.208-10.5-8a66.62 66.62 0 0 0 8-4z"/></svg>
